icons/linear-ele-finance-bank-card.svg

<svg xmlns="http://www.w3.org/2000/svg" width="32px" height="32px" viewBox="0 0 32 32" version="1.1">
    <title>linear-ele-finance-bank-card</title>
    <g id="linear-ele-finance-bank-card" stroke-width="1" fill-rule="evenodd">
        <path d="M26,5 C28.209139,5 30,6.790861 30,9 L30,23 C30,25.209139 28.209139,27 26,27 L6,27 C3.790861,27 2,25.209139 2,23 L2,9 C2,6.790861 3.790861,5 6,5 L26,5 Z M28,16 L4,16 L4,23 C4,24.1045695 4.8954305,25 6,25 L26,25 C27.1045695,25 28,24.1045695 28,23 L28,16 Z M13,20 C13.5522847,20 14,20.4477153 14,21 C14,21.5522847 13.5522847,22 13,22 L7,22 C6.44771525,22 6,21.5522847 6,21 C6,20.4477153 6.44771525,20 7,20 L13,20 Z M28,12 L4,12 L4,14 L28,14 L28,12 Z M26,7 L6,7 C4.8954305,7 4,7.8954305 4,9 L4,10 L28,10 L28,9 C28,7.8954305 27.1045695,7 26,7 Z" id="&#24418;&#29366;" fill-rule="nonzero" />
    </g>
</svg>

<svg xmlns="http://www.w3.org/2000/svg" viewBox="0 0 32 32"><path fill="currentColor" d="M26 5a4 4 0 0 1 4 4v14a4 4 0 0 1-4 4H6a4 4 0 0 1-4-4V9a4 4 0 0 1 4-4zm2 11H4v7a2 2 0 0 0 2 2h20a2 2 0 0 0 2-2zm-15 4a1 1 0 0 1 0 2H7a1 1 0 0 1 0-2zm15-8H4v2h24zm-2-5H6a2 2 0 0 0-2 2v1h24V9a2 2 0 0 0-2-2"/></svg>
